X:77
T:Lord Morpeth's Reel
M:2/4
L:1/16
K:A
E2A2 dcBA | e2A2 dcBA | E2A2 dcBA | G2B2 B3c | 
E2A2 dcBA | e2c2 a2c2 | e2c2 dcBA | E2A2 A4 :|
|:a2e2 f2e2| a2A2 c2A2| F2B2 B2A2 | G2B2 B2d2 |
c2e2 A2c2 | F2A2 D2f2 | G2B2 E2d2 | c2A2 A4 :|
%%newpage
%%vskip 1.5cm
